X: 8
T: Mac's Fancy
R: jig
M: 6/8
L: 1/8
K: Amix
e3 fed | eAA Bcd |eAA gfe | dBG Bcd |eAA fed | eAA Bcd | g3 gfe | dBG :|A2 a aea | aea aea | A2 a aef | gfe dBG | A2 a aea | aea aef | g3 gfe | dBG :|A2 a aea | aea aef | g3 gfe | dBG BdB | A6 |]


Tune 2724	Setting 15964

